icons/svg/alphabetical.svg

﻿<?xml version="1.0" encoding="utf-8"?>
<!DOCTYPE svg PUBLIC "-//W3C//DTD SVG 1.1//EN" "http://www.w3.org/Graphics/SVG/1.1/DTD/svg11.dtd">
<svg xmlns="http://www.w3.org/2000/svg" xmlns:xlink="http://www.w3.org/1999/xlink" version="1.1" baseProfile="full" width="24" height="24" viewBox="0 0 24.00 24.00" enable-background="new 0 0 24.00 24.00" xml:space="preserve">
	<path fill="#000000" fill-opacity="1" stroke-width="0.2" stroke-linejoin="round" d="M 6,11C 7.10456,11 7.99999,11.8954 7.99999,13L 8,17L 4,17C 2.89543,17 2,16.1046 2,15L 2,13C 2,11.8954 2.89543,11 4,11L 6,11 Z M 4,13L 4,15L 6,15L 6,13L 4,13 Z M 20,13L 20,15L 22,15L 22,17L 20,17C 18.8954,17 18,16.1046 18,15L 18,13C 18,11.8954 18.8954,11 20,11L 22,11L 22,13L 20,13 Z M 12,7L 12,11L 14,11C 15.1046,11 16,11.8954 16,13L 16,15C 16,16.1046 15.1046,17 14,17L 12,17C 10.8954,17 10,16.1046 10,15L 10,7L 12,7 Z M 12,15L 14,15L 14,13L 12,13L 12,15 Z "/>
</svg>

<svg xmlns="http://www.w3.org/2000/svg" version="1.1" baseProfile="full" width="24" height="24" viewBox="0 0 24.00 24.00" xml:space="preserve"><path fill="#000" fill-opacity="1" stroke-width=".2" stroke-linejoin="round" d="M6 11c1.105 0 2 .895 2 2v4H4c-1.105 0-2-.895-2-2v-2c0-1.105.895-2 2-2h2zm-2 2v2h2v-2H4zm16 0v2h2v2h-2c-1.105 0-2-.895-2-2v-2c0-1.105.895-2 2-2h2v2h-2zm-8-6v4h2c1.105 0 2 .895 2 2v2c0 1.105-.895 2-2 2h-2c-1.105 0-2-.895-2-2V7h2zm0 8h2v-2h-2v2z"/></svg>
